!!!COM:	la Rue, Pierre de
!!!CDT:	~1452///-1518/11/20
!!!OPR:	Missa de septem doloribus
!!!ONM:	5
!!!OTL:	Agnus Dei
!!!AGN:	Mass; Agnus Dei
!!!SCT:	Rue1014e
!!!SCA:	Rue1014e
!!!voices-OPR:	5
!!!voices:	5
**kern	**kern	**kern	**kern	**kern
*staff5	*staff4	*staff3	*staff2	*staff1
*Ivox	*Ivox	*Ivox	*Ivox	*Ivox
*I"Bassus	*I"Tenor	*I"Tenor	*I"Contra	*I"Discantus
*I'B	*I'T	*I'T	*I'C	*I'D
*>[A,B]	*>[A,B]	*>[A,B]	*>[A,B]	*>[A,B]
*>A	*>A	*>A	*>A	*>A
*clefF4	*clefGv2	*clefGv2	*clefGv2	*clefG2
*k[]	*k[]	*k[]	*k[]	*k[]
*M2/1	*M2/1	*M2/1	*M2/1	*M2/1
*met(C)	*met(C)	*met(C)	*met(C)	*met(C)
!!section: Agnus Dei I
!!!OMD: Agnus Dei I
=1-	=1-	=1-	=1-	=1-
0D	0r	0A	0d	0a
=2	=2	=2	=2	=2
1D	0r	1A	0f	1a
[1AA	.	[1A	.	[1cc
=3	=3	=3	=3	=3
1AA]	0r	1A]	1e	1cc]
1C	.	[1G	1c	1cc
=4	=4	=4	=4	=4
0GG	0r	1G]	1d	1b
.	.	1G	1B	1g
=5	=5	=5	=5	=5
0D	0A	1F	1A	1a
.	.	1D	1r	1f
=6	=6	=6	=6	=6
0AA	0c	0E	1A	2e/
.	.	.	.	1a
.	.	.	2A/	.
.	.	.	2A/	4g/
.	.	.	.	4f/
=7	=7	=7	=7	=7
0BB	1B	0D	1d	2.g/
.	.	.	.	4a/
.	1G	.	1d	4b\
.	.	.	.	4cc\
.	.	.	.	4dd\
.	.	.	.	4b\
=8	=8	=8	=8	=8
0AA	1A	1E	2.c\	2cc\
.	.	.	.	1a
.	.	.	4B\	.
.	1F	1C	1A	.
.	.	.	.	2f/
=9	=9	=9	=9	=9
2r	1E	0C	[0G	2g/
2C/	.	.	.	1e
2C/	1r	.	.	.
[2C/	.	.	.	2g/
=10	=10	=10	=10	=10
4C/]	1E	0r	0G]	2g/
4D\	.	.	.	.
4E\	.	.	.	1g
4F\	.	.	.	.
2G\	2E/	.	.	.
2E\	2E/	.	.	2g/
=11	=11	=11	=11	=11
2D\	1A	0r	0r	2.f/
2D\	.	.	.	.
.	.	.	.	4e/
2.F\	1A	.	.	2c/
.	.	.	.	2f/
4E\	.	.	.	.
=12	=12	=12	=12	=12
2C/	2.G/	0r	1r	2e/
2D\	.	.	.	2.d/
.	4F/	.	.	.
1AA	1E	.	[1A	.
.	.	.	.	4c#i/
.	.	.	.	2c#i/
=13	=13	=13	=13	=13
0r	[0D	0F	2A/]	0d
.	.	.	2B\	.
.	.	.	2A/	.
.	.	.	[2d\	.
=14	=14	=14	=14	=14
1r	0D]	1F	2d\]	1r
.	.	.	4c\	.
.	.	.	4B\	.
1D	.	1F	1A	1a
=15	=15	=15	=15	=15
2GG/	0r	0G	2.G/	2b\
1G	.	.	.	1b
.	.	.	4A/	.
.	.	.	2B\	.
4F\	.	.	[2c\	4a/
4E\	.	.	.	4g/
=16	=16	=16	=16	=16
1D	1r	1F	2c\]	2a/
.	.	.	2B\	2f/
1C	[1E	1G	[1c	2e/
.	.	.	.	[2cc\
=17	=17	=17	=17	=17
0AA	2E/]	0A	1c]	4cc\]
.	.	.	.	4b\
.	2F/	.	.	1a
.	2E/	.	1c	.
.	[2A/	.	.	4g/
.	.	.	.	4f/
=18	=18	=18	=18	=18
1AA	2A/]	0A	0c	1e
.	4G/	.	.	.
.	4F/	.	.	.
1AA	1E	.	.	2r
.	.	.	.	2a/
=19	=19	=19	=19	=19
2BB-i/	2.D/	0r	[0d	2f/
2GG/	.	.	.	2g/
.	4E/	.	.	.
2D\	2F/	.	.	2a/
2GG/	[2G/	.	.	[2b-i\
=20	=20	=20	=20	=20
1D	2G/]	0r	0d]	4b-\]
.	.	.	.	4a/
.	2F/	.	.	2a/
[1GG	[1G	.	.	2b-i\
.	.	.	.	[2dd\
=21	=21	=21	=21	=21
1GG]	1G]	0D	0r	4dd\]
.	.	.	.	4cc\
.	.	.	.	4b-i\
.	.	.	.	4a/
1GG	1G	.	.	1g
=22	=22	=22	=22	=22
0BB-i	0G	0D	1d	2r
.	.	.	.	2g/
.	.	.	2d\	2g/
.	.	.	2d\	2g/
=23	=23	=23	=23	=23
[0AA	[0A	0E	2.c\	1cc
.	.	.	4d\	.
.	.	.	4e\	2cc\
.	.	.	4f\	.
.	.	.	[2e\	[2a/
=24	=24	=24	=24	=24
0AA]	0A]	2C/	2e\]	2a/]
.	.	2D/	1d	2a/
.	.	1E	.	4a/
.	.	.	.	4b\
.	.	.	2c\	4cc\
.	.	.	.	4a/
=25	=25	=25	=25	=25
0r	0r	1F	4d\	2b\
.	.	.	4c\	.
.	.	.	4B\	1a
.	.	.	4A/	.
.	.	1E	1B	.
.	.	.	.	2g#i/
=26	=26	=26	=26	=26
1AA	1A	0C	0A	2a/
.	.	.	.	2e/
2AA/	2A/	.	.	2f/
2AA/	2A/	.	.	[2e/
=27	=27	=27	=27	=27
2.C/	2.G/	0E	0r	4e/]
.	.	.	.	4f/
.	.	.	.	2g/
4BB/	4A/	.	.	.
2AA/	4B\	.	.	2c/
.	4c\	.	.	.
[2GG/	[2B\	.	.	[2g/
=28	=28	=28	=28	=28
2GG/]	2B\]	0D	0r	2g/]
2AA/	1A	.	.	4f/
.	.	.	.	4e/
1BB	.	.	.	1d
.	2G/	.	.	.
=29	=29	=29	=29	=29
0AA	4A/	0C	1A	2r
.	4G/	.	.	.
.	4F/	.	.	2a/
.	4E/	.	.	.
.	1F	.	2A/	2a/
.	.	.	2A/	[2cc\
=30	=30	=30	=30	=30
2.C/	0E	2r	2.G/	4cc\]
.	.	.	.	4b\
.	.	2E/	.	2g/
4BB/	.	.	4A/	.
2AA/	.	2E/	4B\	2a/
.	.	.	4c\	.
[2GG/	.	[2G/	[2B\	[2b\
=31	=31	=31	=31	=31
2GG/]	0r	4G/]	2B\]	2b\]
.	.	4F/	.	.
2AA/	.	1E	2.A/	2cc\
1BB	.	.	.	2.dd\
.	.	.	4G#i/	.
.	.	2D/	2G#i/	.
.	.	.	.	4b\
=32	=32	=32	=32	=32
1AA	0r	0E	1A	2cc\
.	.	.	.	1a
1E	.	.	1B	.
.	.	.	.	2g#i/
=33	=33	=33	=33	=33
0AA	1E	0C	[0Al	1a
.	2E/	.	.	2r
.	2E/	.	.	2a/
=34	=34	=34	=34	=34
2r	2.D/	0r	0A_	2a/
2D\	.	.	.	4f/
.	4E/	.	.	4g/
2D\	4F/	.	.	4a/
.	4G/	.	.	4b-i\
[2D\	[2F/	.	.	2a/
=35	=35	=35	=35	=35
2D\]	2F/]	0r	0A_	2d/
2C/	2.E/	.	.	2.a/
1D	.	.	.	.
.	4D/	.	.	4g/
.	2D/	.	.	4f/
.	.	.	.	8e/L
.	.	.	.	8d/J
=36	=36	=36	=36	=36
[0AAl	1E	[0Cl	0A_	2c/
.	.	.	.	2A/
.	1F	.	.	2.c/
.	.	.	.	4d/
=37	=37	=37	=37	=37
0AA]	0El	0C]	0A]	0el
!!LO:LB:i:g=z
=38||	=38||	=38||	=38||	=38||
*>B	*>B	*>B	*>B	*>B
*clefF4	*clefGv2	*clefGv2	*clefGv2	*clefG2
*k[]	*k[]	*k[]	*k[]	*k[]
*M2/1	*M2/1	*M2/1	*M2/1	*M2/1
*met(C2)	*met(C2)	*met(C2)	*met(C2)	*met(C2)
!!section: Agnus Dei II
!!!OMD: Agnus Dei II
0r	0r	[0D	1d	0r
.	.	.	2.d\	.
.	.	.	4e\	.
=39.	=39.	=39.	=39.	=39.
1D	0r	0D]	2f\	0r
.	.	.	1d	.
2.D\	.	.	.	.
.	.	.	4c\	.
4E\	.	.	4B\	.
=40	=40	=40	=40	=40
2F\	0r	0A	1A	1r
1D	.	.	.	.
.	.	.	1d	1a
4C/	.	.	.	.
4BB/	.	.	.	.
=41.	=41.	=41.	=41.	=41.
[0AA	1r	0A	2.c\	2.a/
.	.	.	4d\	4b\
.	1A	.	2e\	2cc\
.	.	.	2f\	[2a/
=42	=42	=42	=42	=42
0AA_	2.A/	[0c	1e	2a/]
.	.	.	.	4g/
.	4B\	.	.	4f/
.	2c\	.	1r	[1e
.	[2A/	.	.	.
=43.	=43.	=43.	=43.	=43.
0AA]	2A/]	0c]	1r	1e]
.	4G/	.	.	.
.	4F/	.	.	.
.	[1E	.	1e	1a
=44	=44	=44	=44	=44
0r	1E]	0c	1e	1g
.	1A	.	1c	1e
=45.	=45.	=45.	=45.	=45.
0r	1G	[0B	2d\	2r
.	.	.	1e	2e/
.	1E	.	.	1g
.	.	.	4d\	.
.	.	.	4c\	.
=46	=46	=46	=46	=46
0r	2r	0B]	2B\	2.g/
.	2E/	.	2G/	.
.	.	.	.	4f/
.	2.G/	.	4G/	2d/
.	.	.	4A/	.
.	.	.	4B\	2e/
.	4F/	.	4c\	.
=47.	=47.	=47.	=47.	=47.
1r	2D/	[0A	2d\	2f/
.	2E/	.	2c\	2.e/
1D	1F	.	2.A/	.
.	.	.	.	4d/
.	.	.	.	2d/
.	.	.	4B\	.
=48	=48	=48	=48	=48
1C	0E	0A]	2c\	0e
.	.	.	2A/	.
1AA	.	.	2.c\	.
.	.	.	4d\	.
=49.	=49.	=49.	=49.	=49.
2r	1r	0A	1e	0r
1AA	.	.	.	.
.	2r	.	2r	.
[2C/	[2E/	.	2e\	.
=50	=50	=50	=50	=50
2C/]	2E/]	[0G	2e\	0r
4BB/	1G	.	2e\	.
4AA/	.	.	.	.
2GG/	.	.	[1g	.
2AA/	4F/	.	.	.
.	4E/	.	.	.
=51.	=51.	=51.	=51.	=51.
2BB/	2D/	0G]	2g\]	1r
2C/	2C/	.	4f\	.
.	.	.	4e\	.
1BB	1D	.	1d	1d
=52	=52	=52	=52	=52
0AA	0E	0A	3c\	1a
.	.	.	3A/	.
.	.	.	3B\	.
.	.	.	3c\	1a
.	.	.	3d\	.
.	.	.	3e\	.
=53.	=53.	=53.	=53.	=53.
0r	0r	1r	1c	1cc
.	.	1D	1d	2b\
.	.	.	.	[2a/
=54	=54	=54	=54	=54
0r	0r	1A	1r	4a/]
.	.	.	.	4g/
.	.	.	.	4f/
.	.	.	.	4e/
.	.	1A	1D	1f
=55.	=55.	=55.	=55.	=55.
1r	1r	[0c	1A	1e
1AA	1E	.	4A/	1a
.	.	.	4B\	.
.	.	.	4c\	.
.	.	.	4d\	.
=56	=56	=56	=56	=56
1.C	1E	0c]	1.e	1g
.	[1G	.	.	2.e/
4BB/	.	.	4d\	.
4AA/	.	.	4c\	4f/
=57.	=57.	=57.	=57.	=57.
1GG	2G/]	0B	2d\	2g/
.	4F/	.	2G/	2.g/
.	4E/	.	.	.
1GG	2D/	.	1G 1d	.
.	.	.	.	4f/
.	2G/	.	.	4e/
.	.	.	.	4d/
=58	=58	=58	=58	=58
2.AA/	2E/	1A	0r	2.c/
.	2A/	.	.	.
4BB/	.	.	.	4d/
2C/	2G/	[1A	.	2e/
[2D\	[2F/	.	.	[2f/
=59.	=59.	=59.	=59.	=59.
4D\]	4F/]	1A]	0r	4f/]
4C/	4E/	.	.	4e/
4BB/	1E	.	.	4d/
4AA/	.	.	.	4c/
1BB	.	1G	.	1d
.	2D/	.	.	.
=60	=60	=60	=60	=60
[0AA	1E	[0A	0r	2.c/
.	.	.	.	4d/
.	2.A/	.	.	4e/
.	.	.	.	4f/
.	.	.	.	[2e/
.	4G/	.	.	.
=61.	=61.	=61.	=61.	=61.
0AA]	2F/	0A]	0r	2e/]
.	4E/	.	.	2.d/
.	4D/	.	.	.
.	1E	.	.	.
.	.	.	.	4c#i/
.	.	.	.	2c#i/
=62	=62	=62	=62	=62
0r	0D	0r	1r	0d
.	.	.	1D	.
=63.	=63.	=63.	=63.	=63.
1r	0r	0r	1A	0r
1AA	.	.	[1c	.
=64	=64	=64	=64	=64
1E	0r	0r	2c\]	0r
.	.	.	1B	.
1G	.	.	.	.
.	.	.	4A/	.
.	.	.	4G/	.
=65.	=65.	=65.	=65.	=65.
2F\	0r	0r	2A/	0r
1D	.	.	2F/	.
.	.	.	1E	.
2C#i/	.	.	.	.
=66	=66	=66	=66	=66
0D	1r	0r	2r	0r
.	.	.	2D/	.
.	2r	.	2.A/	.
.	2D/	.	.	.
.	.	.	4B\	.
=67.	=67.	=67.	=67.	=67.
2r	1A	0r	4c\	0r
.	.	.	4d\	.
2AA/	.	.	1e	.
1E	1c	.	.	.
.	.	.	4d\	.
.	.	.	4c\	.
=68	=68	=68	=68	=68
1G	1B	0r	2d\	0r
.	.	.	2B\	.
2F\	[1A	.	2c\	.
2D\	.	.	[2f\	.
=69.	=69.	=69.	=69.	=69.
4D\	1A]	1r	4f\]	0r
4C/	.	.	4e\	.
2AA/	.	.	4d\	.
.	.	.	4c\	.
1BB-i	2F/	1D	1d	.
.	2G/	.	.	.
=70	=70	=70	=70	=70
0AA	2E/	1A	0c	0r
.	2F/	.	.	.
.	2E/	1c	.	.
.	[2A/	.	.	.
=71.	=71.	=71.	=71.	=71.
0r	2A/]	1B	0r	2r
.	2G/	.	.	2d/
.	1F	2A/	.	2.a/
.	.	[2A/	.	.
.	.	.	.	4b\
=72	=72	=72	=72	=72
0r	1E	2A/]	0r	2cc\
.	.	2G/	.	1b
.	1r	2A/	.	.
.	.	4G/	.	[2a/
.	.	4F/	.	.
=73.	=73.	=73.	=73.	=73.
0r	0r	1E	0r	2a/]
.	.	.	.	2g/
.	.	2r	.	2a/
.	.	2D/	.	2f/
=74	=74	=74	=74	=74
0r	0r	2.A/	0r	1e
.	.	4B\	.	.
.	.	2c\	.	2r
.	.	2B\	.	2d/
=75.	=75.	=75.	=75.	=75.
0r	2r	2A/	0r	2.a/
.	2D/	1A	.	.
.	.	.	.	4b\
.	2.A/	.	.	2cc\
.	.	4G/	.	[2cc\
.	4B\	4F/	.	.
=76	=76	=76	=76	=76
1AA	1c	2E/	0r	2cc\]
.	.	2F/	.	4b\
.	.	.	.	4a/
2.E\	2c\	1G	.	1g
.	[2c\	.	.	.
4F\	.	.	.	.
=77.	=77.	=77.	=77.	=77.
2G\	4c\]	0C	0e	2r
.	4B\	.	.	.
2A\	2A/	.	.	2.cc\
1E	1G	.	.	.
.	.	.	.	4b\
.	.	.	.	2g/
=78	=78	=78	=78	=78
2r	2.A/	0r	1e	2a/
2AA/	.	.	.	2.cc\
.	4G/	.	.	.
2.E\	4E/	.	1e	.
.	4F/	.	.	4b\
.	[2G/	.	.	4g/
4F\	.	.	.	4a/
=79.	=79.	=79.	=79.	=79.
2G\	2G/]	0r	0e	2b\
2A\	2c\	.	.	1a
1E	1B	.	.	.
.	.	.	.	2g#i/
=80	=80	=80	=80	=80
[0AA	[0A	1E	1c	0a
.	.	2F/	2d\	.
.	.	[2E/	[2e\	.
=81.	=81.	=81.	=81.	=81.
1AA]	1A]	2E/]	2e\]	0r
.	.	1A	1f	.
1BB	1D	.	.	.
.	.	2G/	[2d\	.
=82	=82	=82	=82	=82
0AA	[0A	2F/	2d\]	1r
.	.	4E/	4c#i\	.
.	.	4D/	4B\	.
.	.	1E	1c#i	1e
=83.	=83.	=83.	=83.	=83.
1r	0A]	1D	1d	1f
1D	.	1D	2d\	2f/
.	.	.	[2d\	[2f/
=84	=84	=84	=84	=84
1D	0r	[0A	2d\]	2f/]
.	.	.	4c\	4e/
.	.	.	4B\	4d/
2.AA/	.	.	2c\	2e/
.	.	.	2d\	2f/
4BB/	.	.	.	.
=85.	=85.	=85.	=85.	=85.
1C	0r	0A_	1c	1e
1FF	.	.	2f\	2a/
.	.	.	[2f\	[2a/
=86	=86	=86	=86	=86
1C	1r	0A]	2f\]	2a/]
.	.	.	2e\	2g/
1D	1D	.	2d\	1f
.	.	.	4c\	.
.	.	.	4B\	.
=87.	=87.	=87.	=87.	=87.
1AA	2A/	1r	[0c	0e
.	1A	.	.	.
[1C	.	1A	.	.
.	4G/	.	.	.
.	4F/	.	.	.
=88	=88	=88	=88	=88
2C/]	2.E/	1A	0c]	1r
2BB/	.	.	.	.
.	4D/	.	.	.
2AA/	1E	[1c	.	[1a
2GG/	.	.	.	.
=89.	=89.	=89.	=89.	=89.
[0FF	2F/	2c\]	[0c	1a]
.	1c	2B\	.	.
.	.	2A/	.	[1cc
.	2B\	2G/	.	.
=90	=90	=90	=90	=90
0FF]	2A/	1F	0c]	2cc\]
.	2G/	.	.	2b\
.	2F/	[1A	.	2a/
.	4E/	.	.	4g/
.	4D/	.	.	4f/
=91.	=91.	=91.	=91.	=91.
0r	2C/	2A/]	1r	2e/
.	2D/	2F/	.	1f
.	1C	1G	1c	.
.	.	.	.	2e/
=92	=92	=92	=92	=92
0r	0r	1F	1c	1f
.	.	1r	2A/	2f/
.	.	.	[2c\	[2e/
=93.	=93.	=93.	=93.	=93.
1r	1r	1r	2c\]	2e/]
.	.	.	4B\	4d/
.	.	.	4A/	4c/
2r	2r	[1G	2B\	2d/
[2C/	[2E/	.	2c\	2e/
=94	=94	=94	=94	=94
2C/]	2E/]	1G]	1G	1c
4BB/	4D/	.	.	.
4AA/	4C/	.	.	.
2BB/	2D/	1G	1r	1r
2C/	2E/	.	.	.
=95.	=95.	=95.	=95.	=95.
2FF/	2C/	1A	0r	0r
2AA/	1F	.	.	.
1GG	.	1B-i	.	.
.	2E/	.	.	.
=96	=96	=96	=96	=96
1FF	1F	0A	2r	2r
.	.	.	2c\	1f
1r	1r	.	2F/	.
.	.	.	[2c\	[2e/
=97.	=97.	=97.	=97.	=97.
1r	1r	0r	2c\]	2e/]
.	.	.	4B\	4d/
.	.	.	4A/	4c/
2r	2r	.	2B\	2d/
[2C/	[2E/	.	2c\	2e/
=98	=98	=98	=98	=98
2C/]	2E/]	1r	2A/	1c
2AA/	2C/	.	2e\	.
2BB/	2D/	1G	2d\	1g
[2C/	[2E/	.	2c\	.
=99.	=99.	=99.	=99.	=99.
2C/]	2E/]	1G	1e	1g
4BB/	4D/	.	.	.
4AA/	4C/	.	.	.
2BB/	2D/	1G	2r	1g
2C/	2E/	.	2e\	.
=100	=100	=100	=100	=100
2.FF/	1F	0c	2c\	1a
.	.	.	2.A/	.
4GG/	.	.	.	.
2AA/	1F	.	.	[1cc
.	.	.	4B\	.
2FF/	.	.	4c\	.
.	.	.	4d\	.
=101.	=101.	=101.	=101.	=101.
1C	1G	0c	2e\	2cc\]
.	.	.	1f	4b\
.	.	.	.	4a/
1C	2F/	.	.	1g
.	2G/	.	2e\	.
=102	=102	=102	=102	=102
1D	2r	0A	1f	2f/
.	2.F/	.	.	2.a/
1AA	.	.	1e	.
.	4G/	.	.	4b\
.	2A/	.	.	2cc\
=103.	=103.	=103.	=103.	=103.
1BB	1D	1F	0d	1dd
1GG	1D	1G	.	1b
=104	=104	=104	=104	=104
0AA	1r	[0E	2.c\	2.cc\
.	.	.	4d\	4b\
.	[1A	.	4e\	2a/
.	.	.	4f\	.
.	.	.	[2e\	4g/
.	.	.	.	4f/
=105.	=105.	=105.	=105.	=105.
1r	1A]	0E]	4e\]	2.e/
.	.	.	4d\	.
.	.	.	4c#i\	.
.	.	.	4B\	4d/
1AA	1A	.	2c#i\	1e
.	.	.	4d\	.
.	.	.	4c#i\	.
=106	=106	=106	=106	=106
1BB-i	1F	1r	0d	2r
.	.	.	.	1d
1GG	[1G	1D	.	.
.	.	.	.	[2g/
=107.	=107.	=107.	=107.	=107.
1C	1G]	1E	0r	2g/]
.	.	.	.	1e
1AA	1A	1C	.	.
.	.	.	.	[2a/
=108	=108	=108	=108	=108
0BB-i	2.F/	0D	1d	2a/]
.	.	.	.	2g/
.	4D/	.	.	.
.	2F/	.	1d	2f/
.	2G/	.	.	4e/
.	.	.	.	4d/
=109.	=109.	=109.	=109.	=109.
1AA	2E/	1A	2e\	1c
.	2.F/	.	1c	.
1FF	.	1A	.	1f
.	4G/	.	.	.
.	2A/	.	2A/	.
=110	=110	=110	=110	=110
1GG	0D	1G	2B-i\	2e/
.	.	.	2.G/	2d/
1BB-i	.	2F/	.	[1d
.	.	.	4A/	.
.	.	[2D/	4B-i\	.
.	.	.	4G/	.
=111.	=111.	=111.	=111.	=111.
0AA	1r	2D/]	0A	1d]
.	.	2F/	.	.
.	1E	1E	.	1c#i
=112	=112	=112	=112	=112
2r	1F	[0Dl	1A	[0dl
2FF/	.	.	.	.
2GG/	[1D	.	2B-i\	.
[2BB-/	.	.	[2G/	.
=113.	=113.	=113.	=113.	=113.
2BB-/]	2D/]	0D_	2G/]	0d_
2AA/	2C/	.	2F/	.
1GG	1BB-i	.	1G	.
=114	=114	=114	=114	=114
[0DDl	[0AAl	0D_	1.A	0d_
.	.	.	2F/	.
=115.	=115.	=115.	=115.	=115.
0DD]	0AA]	0D]	0Fl	0d]
==	==	==	==	==
*-	*-	*-	*-	*-
!!!RDF**kern: l=long note in original notation
!!!RDF**kern: i=editorial accidental
!!!ENC:	Chris Gage 05-23-2013
!!!END:	2013/08/04/
!!!EED:	Jesse Rodin
!!!EEV:	2013/12/30/
!!!ONB:	Translated from MusicXML and edited on 2013/12/30/ by Craig Sapp
!!muse2ps: T^@{OPR}^u^@{ONM}{. }@{OTL}^C^@{COM}^i2I150v85,85,85,85,130Q16
